src/activities/babymatch/resource/images/star.svg

<?xml version="1.0" encoding="UTF-8" standalone="no"?>
<svg
   xmlns:dc="http://purl.org/dc/elements/1.1/"
   xmlns:cc="http://creativecommons.org/ns#"
   xmlns:rdf="http://www.w3.org/1999/02/22-rdf-syntax-ns#"
   xmlns:svg="http://www.w3.org/2000/svg"
   xmlns="http://www.w3.org/2000/svg"
   version="1.1"
   id="svg4437"
   height="100"
   width="100">
  <defs
     id="defs4439" />
  <metadata
     id="metadata4442">
    <rdf:RDF>
      <cc:Work
         rdf:about="">
        <dc:format>image/svg+xml</dc:format>
        <dc:type
           rdf:resource="http://purl.org/dc/dcmitype/StillImage" />
        <dc:title></dc:title>
        <dc:date>2021</dc:date>
        <dc:creator>
          <cc:Agent>
            <dc:title>Timothée Giet</dc:title>
          </cc:Agent>
        </dc:creator>
        <cc:license
           rdf:resource="http://creativecommons.org/licenses/by-sa/4.0/" />
      </cc:Work>
      <cc:License
         rdf:about="http://creativecommons.org/licenses/by-sa/4.0/">
        <cc:permits
           rdf:resource="http://creativecommons.org/ns#Reproduction" />
        <cc:permits
           rdf:resource="http://creativecommons.org/ns#Distribution" />
        <cc:requires
           rdf:resource="http://creativecommons.org/ns#Notice" />
        <cc:requires
           rdf:resource="http://creativecommons.org/ns#Attribution" />
        <cc:permits
           rdf:resource="http://creativecommons.org/ns#DerivativeWorks" />
        <cc:requires
           rdf:resource="http://creativecommons.org/ns#ShareAlike" />
      </cc:License>
    </rdf:RDF>
  </metadata>
  <g
     transform="translate(-256.04925,-514.34852)"
     id="layer1">
    <g
       id="DIFFICULTY1"
       transform="matrix(2.0398078,0,0,2.0398078,256.98955,519.47268)"
       style="display:inline">
      <path
         d="M 38.412318,43.12038 24.028942,35.891937 9.6286101,43.089455 12.395166,27.815262 0.76463099,16.983511 16.857835,14.771785 24.070097,0.87968674 31.249689,14.787151 47.337646,17.03323 35.681674,27.840122 Z"
         id="star-6"
         style="display:inline;fill:#f4ae20;fill-opacity:1;stroke:none;stroke-width:3.87044382;stroke-linecap:round;stroke-linejoin:round;stroke-miterlimit:4;stroke-dasharray:none;stroke-opacity:1" />
      <path
         d="M 36.144763,39.785589 24.032447,33.698479 11.905851,39.759547 14.235583,26.897068 4.4414481,17.775594 17.99362,15.913088 24.067103,4.2144783 l 6.045972,11.7115497 13.547754,1.891435 -9.815555,9.10054 z"
         id="star"
         style="fill:#f2f20d;fill-opacity:1;stroke:none;stroke-width:3.25932097;stroke-linecap:round;stroke-linejoin:round;stroke-miterlimit:4;stroke-dasharray:none;stroke-opacity:1" />
    </g>
  </g>
</svg>

<svg xmlns:dc="http://purl.org/dc/elements/1.1/" xmlns:cc="http://creativecommons.org/ns#" xmlns:rdf="http://www.w3.org/1999/02/22-rdf-syntax-ns#" xmlns="http://www.w3.org/2000/svg" height="100" width="100"><metadata><rdf:RDF><cc:Work><dc:format>image/svg+xml</dc:format><dc:type rdf:resource="http://purl.org/dc/dcmitype/StillImage"/><dc:title/><dc:date>2021</dc:date><dc:creator><cc:Agent><dc:title>Timothée Giet</dc:title></cc:Agent></dc:creator><cc:license rdf:resource="http://creativecommons.org/licenses/by-sa/4.0/"/></cc:Work><cc:License rdf:about="http://creativecommons.org/licenses/by-sa/4.0/"><cc:permits rdf:resource="http://creativecommons.org/ns#Reproduction"/><cc:permits rdf:resource="http://creativecommons.org/ns#Distribution"/><cc:requires rdf:resource="http://creativecommons.org/ns#Notice"/><cc:requires rdf:resource="http://creativecommons.org/ns#Attribution"/><cc:permits rdf:resource="http://creativecommons.org/ns#DerivativeWorks"/><cc:requires rdf:resource="http://creativecommons.org/ns#ShareAlike"/></cc:License></rdf:RDF></metadata><g style="display:inline"><path d="M38.412 43.12 24.03 35.892l-14.4 7.197 2.766-15.274L.765 16.984l16.093-2.212L24.07.88l7.18 13.907 16.088 2.246L35.682 27.84z" style="display:inline;fill:#f4ae20;fill-opacity:1;stroke:none;stroke-width:3.87044382;stroke-linecap:round;stroke-linejoin:round;stroke-miterlimit:4;stroke-dasharray:none;stroke-opacity:1" transform="matrix(2.0398 0 0 2.0398 .94 5.124)"/><path d="m36.145 39.786-12.113-6.088-12.126 6.062 2.33-12.863-9.795-9.121 13.553-1.863 6.073-11.699 6.046 11.712 13.548 1.891-9.816 9.101z" style="fill:#f2f20d;fill-opacity:1;stroke:none;stroke-width:3.25932097;stroke-linecap:round;stroke-linejoin:round;stroke-miterlimit:4;stroke-dasharray:none;stroke-opacity:1" transform="matrix(2.0398 0 0 2.0398 .94 5.124)"/></g></svg>
